X: 2
T: Vladimir's Steamboat (R-162; \251Jay Ungar)
M: C|
L: 1/8
R: reel
K: Amix
|:"A"Acde dcAc|dedc AGEA- |Acde dc A2|"G/E"GFGB AG E2|
"A"Acde dcAc|dega gedg|edce "G"dc A2|"G/E"GFGB "A"A4:|
| "A"az az az az|a2ga bagf|efed cdef|"G"gea^g "E"e4|
"A"az az az a2-|a2ga bagf|efed "G"cdef|"E"ecdc "A"A4|
| "A"aa- aa a2a2-|a2ga bagf|efed cdef|"G"gea^g "E"e4|
"A"abag "G"egab|"A"aega bagf|efed cdef|"E"ecdc "A"A4|
%%text 

#include "RightHeader.h"
%%text Set 82 Continued
%%vskip -1cm
